X:2455
T:Polska från Västergötland
T:Svenska Folkdansar H2 nr 4
O:Västergötland
B:Traditioner av Svenska Folkdansar Häfte 2, nr 4
R:Polska
Z:Nils L
M:3/4
L:1/8
K:Eb
B/ | B>d e2 g>e | c>e d2 f>d | B>d e2 g>e | c>=A B2 zz/ ::
B/ | c>A G>F G>A | G>A B2 zz/B/ | c>A G>F G>A | G>A B2 zz/e/ |
e>d c2 a>f | e>d e2 zz/ :|
(:musicend:)
(:music:)
